!! 00000] TT[WS
!!!OTL: Laofu shaoqi
!!!ARE: Asia, China,ÿShanxi Zhongyang
!! Ethnic Group: Han
!! WI, 89
!!!SCT: J0105
!!!YEM: Copyright 1995, estate of Helmut Schaffrath.
**kern
*ICvox
*Ivox
*M2/4
*k[b-e-]
*B-:
{8bb-
16gg
16bb-
4ff
=1
8ff
8bb-
8gg
8ff
=2
8bb-
16gg
16ff
8dd
8cc
=3
4b-
8g
8f}
=4
{8bb-
8ff
8bb-
8gg
=5
8ff
8ff
8dd
16cc
16b-
=6
8cc
8g
8f
8b-
=7
2f}
==
!!!AGN: Xiaodiao. Qingge, Aisu
!!!ONB: ESAC (Essen Associative Code) Database: CHINA
!!!AMT: simple duple
!!!AIN: vox
!!!EED: Helmut Schaffrath
!!!EEV: 1.0
*-
